material/.icons/material/seat-flat.svg

<svg xmlns="http://www.w3.org/2000/svg" viewBox="0 0 24 24"><path d="M22 11v2H9V7h9a4 4 0 014 4M2 14v2h6v2h8v-2h6v-2M7.14 12.1C8.3 10.91 8.28 9 7.1 7.86 5.91 6.7 4 6.72 2.86 7.9 1.7 9.09 1.72 11 2.9 12.14c1.19 1.16 3.1 1.14 4.24-.04z"/></svg>

<?xml version="1.0" encoding="UTF-8"?><!DOCTYPE svg PUBLIC "-//W3C//DTD SVG 1.1//EN" "http://www.w3.org/Graphics/SVG/1.1/DTD/svg11.dtd"><svg xmlns="http://www.w3.org/2000/svg" xmlns:xlink="http://www.w3.org/1999/xlink" version="1.1" id="mdi-seat-flat" width="24" height="24" viewBox="0 0 24 24"><path d="M22,11V13H9V7H18A4,4 0 0,1 22,11M2,14V16H8V18H16V16H22V14M7.14,12.1C8.3,10.91 8.28,9 7.1,7.86C5.91,6.7 4,6.72 2.86,7.9C1.7,9.09 1.72,11 2.9,12.14C4.09,13.3 6,13.28 7.14,12.1Z" /></svg>
